!!!COM:	van Weerbeke, Gaspar
!!!CDT:	~1445//-~1517//
!!!OPR:	Quam pulchra es Cycle
!!!OTL:	Alma redemptoris mater
!!!AGN:	Motet
!!!SMS:	Librone I
!!!SCT:	Gas2017b
!!!SCA:	Gas2017b
!!!voices:	4
**kern	**text	**kern	**text	**kern	**text	**kern	**text
*staff4	*staff4	*staff3	*staff3	*staff2	*staff2	*staff1	*staff1
*Ivox	*	*Ivox	*	*Ivox	*	*Ivox	*
*I"Bassus	*	*I"Tenor	*	*I"Altus	*	*I"Superius	*
*I'B	*	*I'T	*	*I'A	*	*I'S	*
*clefF4	*	*clefGv2	*	*clefGv2	*	*clefG2	*
*k[b-]	*	*k[b-]	*	*k[b-]	*	*k[b-]	*
*M2/1	*	*M2/1	*	*M2/1	*	*M2/1	*
*met(C)	*	*met(C)	*	*met(C)	*	*met(C)	*
=1-	=1-	=1-	=1-	=1-	=1-	=1-	=1-
1G	Al-	0G	Al-	1d	Al-	1.g	Al-
2E\	.	.	.	2G/	.	.	.
2C/	.	.	.	2c\	.	2e/	.
=2	=2	=2	=2	=2	=2	=2	=2
1D	.	1d	.	2A/	.	1f	.
.	.	.	.	4B-\	.	.	.
.	.	.	.	4A/	.	.	.
1C	.	1e-	.	1c	-ma	1g	.
=3	=3	=3	=3	=3	=3	=3	=3
2BB-/	.	2d\	.	2r	.	2f/	.
2B-\	.	2B-\	.	2f\	re-	1b-	.
1F	-ma	1c	.	2f\	-demp-	.	.
.	.	.	.	2f\	-to-	2a/	.
=4	=4	=4	=4	=4	=4	=4	=4
2r	.	1B-	-ma	1d	-ris	1b-	-ma
2G\	re-	.	.	.	.	.	.
2G\	-demp-	1r	.	2.g\	ma-	2r	.
2G\	-to-	.	.	.	.	2b-\	re-
.	.	.	.	4f\	.	.	.
=5	=5	=5	=5	=5	=5	=5	=5
2.B-\	-ris	2G/	re-	2d\	.	2b-\	-demp-
.	.	2G/	-demp-	2g\	.	2b-\	-to-
4A\	.	.	.	.	.	.	.
2G\	.	2G/	-to-	2e\	.	2b-\	-ris
2F\	.	2A/	-ris	2f\	.	[2a/	ma-
=6	=6	=6	=6	=6	=6	=6	=6
2E-\	ma-	1B-	ma-	2g\	.	2a/]	.
2G\	.	.	.	1.d	.	1g	.
1D	-ter,	1A	.	.	.	.	.
.	.	.	.	.	.	2f#i/	.
=7	=7	=7	=7	=7	=7	=7	=7
2r	.	1G	-ter,	1d	-ter,	1g	-ter,
2B-\	Que	.	.	.	.	.	.
2B-\	per-	1r	.	2r	.	2r	.
2B-\	-vi-	.	.	2d\	Que	2b-\	Que
=8	=8	=8	=8	=8	=8	=8	=8
1G	-a	2B-\	Que	2d\	per-	2b-\	per-
.	.	2B-\	per-	2d\	-vi-	2g/	-vi-
2G\	ce-	2B-\	-vi-	2e\	-a	2b-\	-a
2F\	-li	2A/	-a	[2f\	ce-	2cc\	ce-
=9	=9	=9	=9	=9	=9	=9	=9
2B-\	por-	2B-\	ce-	4f\]	.	2dd\	-li
.	.	.	.	4g\	.	.	.
2F\	.	2c\	-li	2a\	-li	2cc\	por-
2B-\	.	2d\	por-	2.b-\	por-	2b-\	-ta
2E-\	-ta	2e-i\	-ta	.	.	[2cc\	ma-
.	.	.	.	4a\	.	.	.
=10	=10	=10	=10	=10	=10	=10	=10
2B-\	ma-	2d\	ma-	4g\	.	2cc\]	.
.	.	.	.	4f\	.	.	.
2G\	.	2B-\	.	2e-\	-ta	1b-	.
1F	.	1c	.	1f	ma-	.	.
.	.	.	.	.	.	2a/	.
=11	=11	=11	=11	=11	=11	=11	=11
1BB-	-nes	1B-	-nes	1d	-nes	1b-	-nes
[1E-	Et	[1G	Et	1B-	Et	1b-	Et
=12	=12	=12	=12	=12	=12	=12	=12
1E-]	.	1G]	.	1c	stel-	2g/	stel-
.	.	.	.	.	.	2e/	.
1D	stel-	1d	stel-	2d\	-la	2f/	-la
.	.	.	.	2B-\	.	2b-\	ma-
=13	=13	=13	=13	=13	=13	=13	=13
1A	-la	1e	-la	1c	ma-	2a/	.
.	.	.	.	.	.	1cc	.
2B-\	ma-	2d\	ma-	2d\	.	.	.
2G\	.	2B-\	.	2e\	.	[2b-\	.
=14	=14	=14	=14	=14	=14	=14	=14
1F	-ris,	1c	.	1f	.	2b-\]	.
.	.	.	.	.	.	2a/	.
2r	.	1B-	-ris,	1d	-ris,	1b-	-ris,
2G\	suc-	.	.	.	.	.	.
=15	=15	=15	=15	=15	=15	=15	=15
2G\	-cur-	1r	.	2r	.	2r	.
2G\	-re	.	.	2d\	suc-	2b-\	suc-
2.B-\	ca-	2G/	suc-	2d\	-cur-	2b-\	-cur-
.	.	2G/	-cur-	2d\	-re	2b-\	-re
4A\	.	.	.	.	.	.	.
=16	=16	=16	=16	=16	=16	=16	=16
2G\	.	2G/	-re	2e\	ca-	2b-\	ca-
2F\	.	2A/	ca-	2f\	.	1a	-den-
2E-\	-den-	1B-	-den-	2g\	.	.	.
2G\	.	.	.	[2d\	-den-	[2g/	.
=17	=17	=17	=17	=17	=17	=17	=17
1D	-ti,	1A	.	1d]	.	2g/]	.
.	.	.	.	.	.	2f#i/	.
2r	.	1G	-ti,	1d	-ti,	1g	-ti,
[2G\	Sur-	.	.	.	.	.	.
=18	=18	=18	=18	=18	=18	=18	=18
4G\]	.	1r	.	2g\	Sur-	2.d/	Sur-
4G\	-ge-	.	.	.	.	.	.
2G\	-re	.	.	2g\	-ge-	.	.
.	.	.	.	.	.	4d/	-ge-
1d	qui	2B-\	sur-	1f	-re	2d/	-re
.	.	2B-\	-ge-	.	.	2f/	qui
=19	=19	=19	=19	=19	=19	=19	=19
2B-\	cu-	2B-\	-re	1r	.	2g/	cu-
2A\	.	2c\	qui	.	.	2a/	.
2B-\	.	1d	cu-	[1f	qui	2f/	-rat,
4G\	.	.	.	.	.	[2b-\	po-
4B-\	.	.	.	.	.	.	.
=20	=20	=20	=20	=20	=20	=20	=20
1F	.	1c	.	2f\]	cu-	2b-\]	.
.	.	.	.	2f\	-rat,	2a/	.
1BB-	-rat,	1B-	-rat,	1f	po-	2b-\	.
.	.	.	.	.	.	2dd\	.
=21	=21	=21	=21	=21	=21	=21	=21
1F	po-	1c	po-	2.f\	.	2cc\	.
.	.	.	.	.	.	1a	.
.	.	.	.	4e\	.	.	.
2G\	-pu-	2B-\	.	4d\	.	.	.
.	.	.	.	4B-\	.	.	.
2E-\	.	2G/	.	2c\	-pu-	[2g/	.
=22	=22	=22	=22	=22	=22	=22	=22
1D	-lo,	1A	-pu-	1d	-lo,	2g/]	.
.	.	.	.	.	.	2f#i/	-pu-
1r	.	1G	-lo,	1r	.	1g	-lo,
=23	=23	=23	=23	=23	=23	=23	=23
0r	.	1r	.	0r	.	2b-\	Tu
.	.	.	.	.	.	2b-\	que
.	.	2B-\	Tu	.	.	2b-\	ge-
.	.	2B-\	que	.	.	2g/	-nu-
=24	=24	=24	=24	=24	=24	=24	=24
0r	.	2B-\	ge-	0r	.	2f/	-is-
.	.	2G/	-nu-	.	.	2g/	.
.	.	1F	-is	.	.	1a	.
=25	=25	=25	=25	=25	=25	=25	=25
0r	.	1G	.	0r	.	1b-	.
.	.	1A	.	.	.	2a/	.
.	.	.	.	.	.	2f/	.
=26	=26	=26	=26	=26	=26	=26	=26
0r	.	1B-	.	0r	.	1g	.
.	.	2A/	.	.	.	2c/	.
.	.	2F/	.	.	.	[2f/	.
=27	=27	=27	=27	=27	=27	=27	=27
0r	.	1G	.	1r	.	2f/]	.
.	.	.	.	.	.	2e/	.
.	.	[1F	.	2c\	Na-	1f	.
.	.	.	.	2c\	-tu-	.	.
=28	=28	=28	=28	=28	=28	=28	=28
1r	.	1F]	sti,	2c\	-ra	1f	-ti,
.	.	.	.	2c\	mi-	.	.
2G\	Na-	1r	.	2.B-\	-ran-	1r	.
2G\	-tu-	.	.	.	.	.	.
.	.	.	.	4c\	.	.	.
=29	=29	=29	=29	=29	=29	=29	=29
2G\	-ra	0r	.	2d\	.	0r	.
2G\	mi-	.	.	1e-	.	.	.
1F	-ran-	.	.	.	.	.	.
.	.	.	.	[2d\	.	.	.
=30	=30	=30	=30	=30	=30	=30	=30
1E-	.	0r	.	2d\]	.	2g/	Tu-
.	.	.	.	2c\	.	2g/	-um
1D	-te	.	.	1d	-te	2f/	sanc-
.	.	.	.	.	.	2f/	-tum
=31	=31	=31	=31	=31	=31	=31	=31
2G\	Tu-	1r	.	1r	.	2.d/	ge-
2G\	-um	.	.	.	.	.	.
.	.	.	.	.	.	4e/	.
2D\	sanc-	2d\	Tu-	2.a\	Tu-	2.f/	.
2D\	-tum	2d\	-um	.	.	.	.
.	.	.	.	4g\	.	4g/	.
=32	=32	=32	=32	=32	=32	=32	=32
2.D\	ge-	2d\	sanc-	2f\	-um	2a/	.
.	.	2d\	-tum	1f	sanc-	4f/	.
4E-\	-ni-	.	.	.	.	4g/	.
2F\	-to-	2c\	ge-	.	.	2a/	.
2G\	.	2B-\	-ni-	2e\	.	[2b-\	-ni-
=33	=33	=33	=33	=33	=33	=33	=33
1F	-rem,	1c	-to-	1f	-tum	2b-\]	.
.	.	.	.	.	.	2a/	.
2r	.	1B-	.	2d\	ge-	4b-\	-to-
.	.	.	.	.	.	4a/	.
2G\	ge-	.	.	2g\	-ni-	4g/	.
.	.	.	.	.	.	4f/	.
=34	=34	=34	=34	=34	=34	=34	=34
2A\	-ni-	1c	.	2e\	-to-	2e/	.
1F	-to-	.	.	1f	.	1a	.
.	.	2d\	.	.	.	.	.
2G\	.	2B-\	.	[2d\	.	[2g/	.
=35	=35	=35	=35	=35	=35	=35	=35
1D	-rem,	1A	-rem,	1d]	.	2g/]	.
.	.	.	.	.	.	2f#i/	.
*M6/2	*	*M6/2	*	*M6/2	*	*M6/2	*
*met(C3)	*	*met(C3)	*	*met(C3)	*	*met(C3)	*
1.E	Vir-	1.G	Vir-	1c	-rem	1.g	-rem,
.	.	.	.	2c\	.	.	.
=36	=36	=36	=36	=36	=36	=36	=36
2.C/	.	1.G	-go	2.c\	pri-	1.g	Vir-
4D\	.	.	.	4B-\	.	.	.
2E-\	.	.	.	2c\	.	.	.
1D	.	1A	pri-	1d	.	1f	-go
2G\	-go	2B-\	.	2e\	.	2g/	pri-
=37	=37	=37	=37	=37	=37	=37	=37
2.F\	pri-	1.c	-us	2.f\	-us	1.a	-us
4G\	.	.	.	4e\	.	.	.
2A\	-us	.	.	2f\	.	.	.
1G	ac	1d	ac	1g	ac	1b-	ac
2F\	pos-	2A/	pos-	2a\	pos-	2cc\	pos-
=38	=38	=38	=38	=38	=38	=38	=38
2.G\	-te-	1G	-te-	1d	-te-	2.b-\	-te-
4A\	.	.	.	.	.	4a/	.
2G\	-ri-	2d\	-ri-	2B-\	-ri-	2g/	-ri-
1F	-us,	1f	-us,	1c	-us,	1a	-us,
2G\	Ga-	2d\	Ga-	2g\	Ga-	2b-\	Ga-
=39	=39	=39	=39	=39	=39	=39	=39
1C	-bri-	1e	-bri-	1g	-bri-	1cc	-bri-
2G\	.	2d\	.	2g\	-e-	2dd\	.
1G	-e-	2.g\	-e-	1d	-lis	1b-	.
.	.	4f\	.	.	.	.	.
2A\	.	2e\	.	2c\	ab	2cc\	.
=40	=40	=40	=40	=40	=40	=40	=40
1B-	-lis	1d	-lis	2B-\	o-	2.dd\	-e-
.	.	.	.	2G/	.	.	.
.	.	.	.	.	.	4cc\	.
2G\	ab	2d\	ab	2B-\	-re	2b-\	.
1F	o-	1f	o-	1c	su-	1a	-lis
2B-\	-re	2d\	-re	2B-\	.	2dd\	ab
=41	=41	=41	=41	=41	=41	=41	=41
2c\	.	1e	su-	2.A/	.	1cc	o-
1A	su-	.	.	.	.	.	.
.	.	.	.	4B-\	.	.	.
.	.	2f\	.	2c\	.	2a/	-re
1G	-mens,	2.g\	.	1d	-mens,	1b-	su-
.	.	4f\	.	.	.	.	.
2C/	ab	2e\	.	2g\	ab	2cc\	.
=42	=42	=42	=42	=42	=42	=42	=42
1G	o-	1d	-mens,	1g	o-	2.dd\	.
.	.	.	.	.	.	4cc\	.
2B-\	-re	2d\	ab	2g\	-re	2b-\	.
2.F\	su-	1f	o-	4a\	su-	2.a/	.
.	.	.	.	4b-\	.	.	.
.	.	.	.	2cc\	.	.	.
4G\	.	.	.	.	.	4b-\	.
2A\	.	2f\	-re	2a\	.	2cc\	.
=43	=43	=43	=43	=43	=43	=43	=43
2B-\	.	2d\	su-	2g\	.	1dd	.
1A	.	1e	.	1a	-mens	.	.
.	.	.	.	.	.	2cc#i\	.
1.D	-mens	1d	-mens	2.f\	il-	1dd	-mens
.	.	.	.	4e\	.	.	.
.	.	2r	.	4d\	.	2r	.
.	.	.	.	4c\	.	.	.
=44	=44	=44	=44	=44	=44	=44	=44
1G	il-	1.r	.	1B-	.	1dd	il-
2E-\	-lud,	.	.	2G/	-lud,	2ee-\	-lud,
1D	A-	1d	il-	2.A/	A-	1ff	A-
.	.	.	.	4B-\	.	.	.
2C/	-ve,	2e\	-lud,	2c\	-ve,	2een\	-ve,
=45	=45	=45	=45	=45	=45	=45	=45
1F	pec-	1f	A-	2.A/	pec-	1dd	pec-
.	.	.	.	4B-\	.	.	.
2C/	-ca-	2e\	-ve,	2c\	-ca-	2cc\	-ca-
1G	-to-	1d	pec-	1d	-to-	1b-	-to
2C/	.	2c\	-ca-	2e\	.	2a/	.
=46	=46	=46	=46	=46	=46	=46	=46
2G\	.	2B-\	-to-	1d	.	2g/	.
2D\	.	2A/	.	.	.	2f/	.
2E-\	.	2G/	.	2c\	.	2g/	.
1D	.	1.F	-rum	1d	.	1.a	rum
2D\	-rum	.	.	2f\	-rum	.	.
=47	=47	=47	=47	=47	=47	=47	=47
1D	mi-	1F	mi-	1f	mi-	1a	mi-
2G\	-se-	2G/	-se-	2d\	-se-	2b-\	-se-
1F	-re-	1A	-re-	1f	-re-	1cc	-re-
2F\	-re,	2A/	-re,	2f\	-re,	2cc\	-re,
=48	=48	=48	=48	=48	=48	=48	=48
2.F\	mi-	2.A/	mi-	2.f\	mi-	2.cc\	mi-
4G\	.	4B-\	.	4e\	.	4b-\	.
2A\	.	2c\	.	2f\	.	4a/	.
.	.	.	.	.	.	2g/	.
2G\	.	2d\	.	2g\	.	.	.
.	.	.	.	.	.	4b-\	.
2A\	-se-	1c	-se-	2e\	-se-	2.a/	-se-
2F\	.	.	.	2f\	.	.	.
.	.	.	.	.	.	4g/	.
=49	=49	=49	=49	=49	=49	=49	=49
2G\	.	2B-\	.	1.d	-re	1g	-re-
1D	-re-	1A	-re-	.	.	.	.
.	.	.	.	.	.	2f#i/	.
1.Gl	-re.	1.Gl	-re.	1.dl	re.	1.gl	-re.
==	==	==	==	==	==	==	==
*-	*-	*-	*-	*-	*-	*-	*-
!!!RDF**kern: l=long note in original notation
!!!RDF**kern: i=editorial accidental
!!!ENC:	Clare Bokulich 12/05/12
!!!END:	2012/12/05/
!!!EED:	Jesse Rodin
!!!EEV:	2016/03/30/
!!!ONB:	Translated from MusicXML and edited on 2016/03/30/ by Craig Sapp
!!muse2ps: C^@{COM}\nSource: @{SMS}^i2I150v85,85,85,150Q16c105
!!muse2ps: T^@{OPR}^u^2. @{OTL}^
